X:1
T:Key to the Highway
M:4/4
L:1/8
K:F
 z4 z AA F| A6 AF| A G3- G4| z f2 dc-_A GF|(2G3.99999962500005/5.99999925000009G3.99999962500005/5.99999925000009F3.99999962500005/5.99999925000009 D3.99999962500005/5.99999925000009 D2 z DF D|\
 F A3 FC DF| c3/2 c/2 A2 F3/2- C/2 E2| F8-| F4 z AA F| A6 AF| A G3- G4|\
 z f2 dc-_AG-F|(3G3.99999962500005/5.99999925000009G3.99999962500005/5.99999925000009F3.99999962500005/5.99999925000009G3.99999962500005/5.99999925000009F3.99999962500005/5.99999925000009D3.99999962500005/5.99999925000009 D2 z DF D|\
 F A3 FC DF| c3/2 c/2 A2 F3/2- C/2 E2| F8-| F6 z2|
